svg/UnitedNations-Flags/flag-by.svg

<svg height="256" viewBox="0 0 360 180" width="256" xmlns="http://www.w3.org/2000/svg" xmlns:xlink="http://www.w3.org/1999/xlink"><path fill="#090" d="m0 0h360v180h-360z"/><path fill="#c00" d="m0 0h360v120h-360z"/><path fill="#fff" d="m0 0h40v180h-40z"/><g id="0"><g id="1" fill="#c00"><path d="m20 90v-1h-1v-2h-1v-2h-2v2h1v2h1v1h2m-10 0v-2h-2v-3h-1v-3h-2v-3h-1v-4h2v3h2v3h2v3h1v-3h2v-3h2v-3h2v-3h2v-4h-2v-5h-2v-4h-2v5h1v5h-1v4h-2v4h-1v-4h-2v-4h-2v-5h-1v-4h1v-4h2v-4h1v-4h2v-4h2v4h2v4h2v4h2v5h1v15h-2v3h-2v3h-2v3h-1v3h-2v2h-1m1-53h2v-4h2v-4h2v-4h2v-4h1v-4h-1v-4h-2v-4h-2v-4h-2v-4h-2v4h-2v4h-2v4h-2v4h-1v4h1v4h2v4h2v4h2v4m-7-28v-4h2v4h-2m0 24v-4h2v4h-2m0 19v-4h2v4h-2m0 22v-4h2v4h-2m0 16v-2h2v2h-2m10 0v-2h2v2h-2m5-6v-4h1v4h-1m0-32v-4h1v4h-1m0-19v-4h2v4h-2m0-24v-4h1v4h-1"/><path d="m11 29h2v-4h2v-4h2v-4h-2v-4h-2v-4h-2v4h-2v4h-2v4h2v4h2v4" fill="#fff"/><path d="m11 21h2v-4h-2v4"/><g id="2"><path d="m17 48h1v-3h1v-3h1v-3h-1v-3h-1v-3h-1v3h-1v3h-1v3h1v3h1v3"/><path d="m17 39h1v3h-1v-3" fill="#fff"/></g><use height="180" transform="translate(-10)" width="360" xlink:href="#2"/></g><use height="180" transform="matrix(-1 0 0-1 40 180)" width="360" xlink:href="#1"/></g><use height="180" transform="matrix(1 0 0-1 0 180)" width="360" xlink:href="#0"/></svg>

<?xml version="1.0" encoding="UTF-8" standalone="no"?>
<svg height="256" id="svg2397" inkscape:output_extension="org.inkscape.output.svg.inkscape" inkscape:version="0.46" sodipodi:docname="Flag_of_Belarus.svg" sodipodi:version="0.32" version="1.0" viewBox="0 0 360 180" width="256" xmlns="http://www.w3.org/2000/svg" xmlns:cc="http://creativecommons.org/ns#" xmlns:dc="http://purl.org/dc/elements/1.1/" xmlns:inkscape="http://www.inkscape.org/namespaces/inkscape" xmlns:rdf="http://www.w3.org/1999/02/22-rdf-syntax-ns#" xmlns:sodipodi="http://sodipodi.sourceforge.net/DTD/sodipodi-0.dtd" xmlns:svg="http://www.w3.org/2000/svg" xmlns:xlink="http://www.w3.org/1999/xlink">
  <metadata>
    <rdf:RDF xmlns:cc="http://web.resource.org/cc/" xmlns:dc="http://purl.org/dc/elements/1.1/" xmlns:rdf="http://www.w3.org/1999/02/22-rdf-syntax-ns#">
      <cc:Work rdf:about="">
        <dc:title></dc:title>
        <dc:description></dc:description>
        <dc:subject>
          <rdf:Bag>
            <rdf:li>unsorted</rdf:li>
          </rdf:Bag>
        </dc:subject>
        <dc:publisher>
          <cc:Agent rdf:about="http://www.openclipart.org/">
            <dc:title>Open Clip Art Library, Source: Wikimedia Commons, Source: Wikimedia Commons, Source: Wikimedia Commons, Source: Wikimedia Commons</dc:title>
          </cc:Agent>
        </dc:publisher>
        <dc:creator>
          <cc:Agent>
            <dc:title></dc:title>
          </cc:Agent>
        </dc:creator>
        <dc:rights>
          <cc:Agent>
            <dc:title></dc:title>
          </cc:Agent>
        </dc:rights>
        <dc:date></dc:date>
        <dc:format>image/svg+xml</dc:format>
        <dc:type rdf:resource="http://purl.org/dc/dcmitype/StillImage"/>
        <cc:license rdf:resource="http://en.wikipedia.org/wiki/Public_domain"/>
        <dc:language>en</dc:language>
      </cc:Work>
    </rdf:RDF>
  </metadata>
  <defs id="defs2425">
    <inkscape:perspective id="perspective2429" inkscape:persp3d-origin="600 : 200 : 1" inkscape:vp_x="0 : 300 : 1" inkscape:vp_y="0 : 1000 : 0" inkscape:vp_z="1200 : 300 : 1" sodipodi:type="inkscape:persp3d"/>
  </defs>
  <sodipodi:namedview bordercolor="#666666" borderopacity="1.0" gridtolerance="10.0" guidetolerance="10.0" id="base" inkscape:current-layer="svg2397" inkscape:cx="600" inkscape:cy="300" inkscape:pageopacity="0.0" inkscape:pageshadow="2" inkscape:window-height="674" inkscape:window-width="640" inkscape:window-x="111" inkscape:window-y="196" inkscape:zoom="0.46583333" objecttolerance="10.0" pagecolor="#ffffff" showgrid="false"/>
  <rect height="180" id="rect2399" style="fill:#009900" width="360" x="0" y="0"/>
  <rect height="120" id="rect2401" style="fill:#cc0000" width="360" x="0" y="0"/>
  <rect height="180" id="rect2403" style="fill:#ffffff" width="40" x="0" y="0"/>
  <g id="2">
    <g id="1" style="fill:#cc0000">
      <path d="M 20,90 L 20,89 L 19,89 L 19,87 L 18,87 L 18,85 L 16,85 L 16,87 L 17,87 L 17,89 L 18,89 L 18,90 L 20,90 z M 10,90 L 10,88 L 8,88 L 8,85 L 7,85 L 7,82 L 5,82 L 5,79 L 4,79 L 4,75 L 6,75 L 6,78 L 8,78 L 8,81 L 10,81 L 10,84 L 11,84 L 11,81 L 13,81 L 13,78 L 15,78 L 15,75 L 17,75 L 17,72 L 19,72 L 19,68 L 17,68 L 17,63 L 15,63 L 15,59 L 13,59 L 13,64 L 14,64 L 14,69 L 13,69 L 13,73 L 11,73 L 11,77 L 10,77 L 10,73 L 8,73 L 8,69 L 6,69 L 6,64 L 5,64 L 5,60 L 6,60 L 6,56 L 8,56 L 8,52 L 9,52 L 9,48 L 11,48 L 11,44 L 13,44 L 13,48 L 15,48 L 15,52 L 17,52 L 17,56 L 19,56 L 19,61 L 20,61 L 20,76 L 18,76 L 18,79 L 16,79 L 16,82 L 14,82 L 14,85 L 13,85 L 13,88 L 11,88 L 11,90 L 10,90 z M 11,37 L 13,37 L 13,33 L 15,33 L 15,29 L 17,29 L 17,25 L 19,25 L 19,21 L 20,21 L 20,17 L 19,17 L 19,13 L 17,13 L 17,9 L 15,9 L 15,5 L 13,5 L 13,1 L 11,1 L 11,5 L 9,5 L 9,9 L 7,9 L 7,13 L 5,13 L 5,17 L 4,17 L 4,21 L 5,21 L 5,25 L 7,25 L 7,29 L 9,29 L 9,33 L 11,33 L 11,37 z M 4,9 L 4,5 L 6,5 L 6,9 L 4,9 z M 4,33 L 4,29 L 6,29 L 6,33 L 4,33 z M 4,52 L 4,48 L 6,48 L 6,52 L 4,52 z M 4,74 L 4,70 L 6,70 L 6,74 L 4,74 z M 4,90 L 4,88 L 6,88 L 6,90 L 4,90 z M 14,90 L 14,88 L 16,88 L 16,90 L 14,90 z M 19,84 L 19,80 L 20,80 L 20,84 L 19,84 z M 19,52 L 19,48 L 20,48 L 20,52 L 19,52 z M 19,33 L 19,29 L 21,29 L 21,33 L 19,33 z M 19,9 L 19,5 L 20,5 L 20,9 L 19,9 z" id="path2407"/>
      <path d="M 11,29 L 13,29 L 13,25 L 15,25 L 15,21 L 17,21 L 17,17 L 15,17 L 15,13 L 13,13 L 13,9 L 11,9 L 11,13 L 9,13 L 9,17 L 7,17 L 7,21 L 9,21 L 9,25 L 11,25 L 11,29 z" id="path2409" style="fill:#ffffff"/>
      <path d="M 11,21 L 13,21 L 13,17 L 11,17 L 11,21 z" id="path2411"/>
      <g id="3">
        <path d="M 17,48 L 18,48 L 18,45 L 19,45 L 19,42 L 20,42 L 20,39 L 19,39 L 19,36 L 18,36 L 18,33 L 17,33 L 17,36 L 16,36 L 16,39 L 15,39 L 15,42 L 16,42 L 16,45 L 17,45 L 17,48 z" id="path2414"/>
        <path d="M 17,39 L 18,39 L 18,42 L 17,42 L 17,39 z" id="path2416" style="fill:#ffffff"/>
      </g>
      <use height="180" id="use2418" transform="translate(-10,0)" width="360" x="0" xlink:href="#3" y="0"/>
    </g>
    <use height="180" id="use2420" transform="matrix(-1,0,0,-1,40,180)" width="360" x="0" xlink:href="#1" y="0"/>
  </g>
  <use height="180" id="use2422" transform="matrix(1,0,0,-1,0,180)" width="360" x="0" xlink:href="#2" y="0"/>
</svg>
